!!!OTL: Madam, Madam, nach Hause sollt Ihr kommen, S. 58
!!!id: R0057
**kern
*clefG2
*k[f#]
*G:
{8g
=1
4.d
8g
=2
4.d
8d
=3
8.g
16d
8d
8d
=4
4d
8d}
=5
{8d
=6
8.g
16d
8d
8d
=7
4d
8d}
=8
{16d
16d
=9
8g
8d
8d
8d
=10
4d}
4r
=11
{8f#
8d
4d
=12
8f#
8d
4d}
=13
{8f#
8e
8d
8c
=14
8.c
16B
8B}
8r
=15
{16A
16A
16A
16A
8B
8c#
=16
4d}
8r
==
*-
!!!minrhy: 16
!!!meters: 2/4 ]  ZZ[6
!!!cut: Madam, Madam, nach Hause sollt Ihr kommen, S. 58
!!!reg: Luxemburg
!!!trd: D'Fraen um Kanddaaf an der aler Zeit, Luxemburg 1929
!!!rhy1: X_  X__.X_  X__.X_  X_.XX_X_  X__X_
!!!rhy2: X_  X_.XX_X_  X__X_
!!!key: R0057  16  G 2/4 ]  ZZ[6
!!!mod: ACHTTONSKALA DUR ?]  AMBITUS[7b
!!!kad: -5-5-5-5-3-5
!!!akz: -5-51-5_1-5_1-5_-7-7_-7-4_-2-5_
!!!fot: 'a__aw_a__b__c__d__
!!!for: 'a__b__c__d__cw_e__
!!!fok: '\__^__^__\__\__/__
!! PHRAS[GEMISCHTTAKTIG]
!!!fkt: ??, Tod, Ehebruch
!!!bem: Grundton?
!! RUDEN, J.M.:
!! PR[16] 2K[6] 2G[0] 3K[6] 3G[8] 4A[8] 4Ü[0] 5A[2] 6K[0] 6G[2]
!! 7K[0] 7G[0] 8A[2] MEHR[0] SI[35] ABS[49] SR[6] SP[29]
!! ST[16] 2k[6] 2g[10] 3k[16] 3g[12] 4d[4] 4ü[0] 5d[0] 6k[0] 6g[0]
!! 7k[0] 7g[0] 8d[0] mehr[0] si[49] dm[-14] sr[16] sp[33]
!! 1F[28] 2F[60] 3F[8] 4F[0] LF[0] 2P[4] 3P[0] 4P[0] TRI[0] DF[4] AB[50]
!! TF[0] U3K[0] U3[0] U4[0] U4Ü[0] U5[0] U6K[0] U6[0] U7K[0] U7[0]
!! N1[4] N2K[0] N2[4] N3K[0] N3[4] N4[4] N4Ü[0] N5[22] N6K[0] N6[6]
!!!n7k: 0] N7[10] O1[28] O2K[0] O2[6] O3K[0] O3[12] HÖ[0
